!!!cenid: 16xx:1776
!!!COM: Jarzębski, Adam
!!!COM-rismID: pe30017782
!!!CDT:
!!!CNT:
!!!GTL: Canzoni e Concerti
!!!OTL: 3. Concerto Terzo
!!!PDT: 1627
!!!AGN:
!!!SMS-siglum: D-B
!!!SMS-shelfmark: Slg Bohn Ms.mus. 111
!!!SMS-shelfwork: 003 G
!!!SMS-variant:
!!!SMS-altvar:
!!!NIFC-rismSourceID: 1001062014
!!!NIFC-rismChildID: 1001062014
!!!NIFC-islandoraID:
!!!URL-pdf-islandora:
!!!URL-scan: https://digital.staatsbibliothek-berlin.de/werkansicht/?PPN=PPN1049147219
!!!ONB-nifc: UWAGA: Prima vox: s. 6, Seconda vox: s. 66, Basso continuo: s. 166. Uwaga: proszę wpisywać partie tylko występujące w danym koncercie i nazywać partie wg określeń podawanych przy danym utworze. Kody instr. dla humdrumowców podane zostaną na forum.
!!!AIN: 1 soprn 1 tromt
!!!key: a
**kern	**fing	**kern	**kern
*part3	*part3	*part2	*part1
*staff3	*	*staff2	*staff1
*I"Baſso Continuo.	*	*I"Trombone.	*I"Sopr.
*I'bc	*	*I'trb	*I'S
*	*	*ICbras	*ICvox
*	*	*Itromt	*Isoprn
*IGcont	*	*	*
*clefF4	*	*clefF4	*clefG2
*k[]	*	*k[]	*k[]
*a:	*	*a:	*a:
*M2/2	*	*M2/2	*M2/2
*met(C|)	*	*met(C|)	*met(C|)
=1-	=1-	=1-	=1-
*2\right	*	*	*2\right
!!LO:TX:t=P:problem: all\right or middle	!	!
2E\	.	1r	2ee\
4E\	.	.	4ee\
4E\	.	.	4ee\
=2-	=2-	=2-	=2-
*	*	*2\right	*
2A\	.	2A\	8cc\L
.	.	.	8a\
.	.	.	8cc\
.	.	.	8dd\J
4A\	.	4A\	8ee\
.	.	.	16cc\LL
.	.	.	16dd\
!LO:TX:t=P:problem:kreska pseudotaktowa	!	!	!
4A\	.	4A\	16ee\
.	.	.	16ff\
.	.	.	16gg\
!	!	!	!LO:TX:t=P:problem:kreska pseudotaktowa
.	.	.	16ee\JJ
=3-	=3-	=3-	=3-
2D/	.	8F\L	2ff\
.	.	8D\	.
.	.	8F\	.
.	.	8G\J	.
4A\	.	8A\L	2ee\
.	.	16F\L	.
.	.	16G\JJ	.
4c\	.	16A\LL	.
.	.	16B\	.
.	.	16c\	.
.	.	16A\JJ	.
=4-	=4-	=4-	=4-
2G\	.	4.B\	4.dd\
.	.	8A\	8cc\
!LO:TX:t=P:problem:kreska pseudotaktowa	!	!	!
2A\	.	2A\	4cc\
.	.	.	8b/L
.	.	.	8a/J
=5-	=5-	=5-	=5-
1E	.	4E\	2b/
*	*	*clefC3	*
.	.	4e\	.
.	.	4e\	2b/
.	.	4e\	.
=6-	=6-	=6-	=6-
2AA/	.	8c/L	4a/
.	.	8A/	.
.	.	8c/	4ee\
.	.	8d/J	.
!LO:TX:t=P:problem:kreska pseudotaktowa	!	!	!
2E\	.	8e\L	4ee\
.	.	16c\L	.
.	.	16d\JJ	.
*	*	*custos:e	*
!	!	!LO:LB:g=original	!
.	.	16e\LL	4ee\
.	.	16f\	.
.	.	16g\	.
.	.	16e\JJ	.
=7-	=7-	=7-	=7-
2F\	.	2f\	8cc\L
.	.	.	8a\
.	.	.	8cc\
.	.	.	8dd\J
*	*	*	*custos:ee
!	!	!	!LO:LB:g=original
2E\	.	2e\	8ee\
.	.	.	16cc\LL
.	.	.	16dd\
.	.	.	16ee\
.	.	.	16ff\
.	.	.	16gg\
!	!	!	!LO:TX:t=P:problem:kreska pseudotaktowa
.	.	.	16ee\JJ
=8-	=8-	=8-	=8-
2D/	.	8d\	2ff\
*	*	*clefF4	*
.	.	8D\L	.
.	.	8F\	.
.	.	8G\J	.
4.AA/	.	8A\L	2ee\
.	.	16F\L	.
.	.	16G\JJ	.
.	.	16A\LL	.
.	.	16B\	.
!LO:TX:t=P:problem:kreska pseudotaktowa	!	!	!
8C/	.	16c\	.
.	.	16A\JJ	.
=9-	=9-	=9-	=9-
2GG/	.	4.B\	4.dd\
.	.	8A\	8cc\
2AA/	.	2A\	4cc\
.	.	.	8b/L
.	.	.	8a/J
=10-	=10-	=10-	=10-
2E\	.	8E\	2b/
*	*	*clefC3	*
.	.	8e\L	.
.	.	8e\	.
.	.	8e\J	.
!	!	!	!LO:TX:t=P:problem:mixedbeam
4AA/	.	16A/LL	8a/L
.	.	16B/	.
.	.	16c/	8ee\
.	.	16d/JJ	.
4E\	.	16e\LL	8ee\
.	.	16f\	.
!	!	!	!LO:TX:t=P:problem:kreska pseudotaktowa
.	.	16g\	8ee\J
!	!	!LO:TX:t=P:problem:kreska pseudotaktowa	!
.	.	16e\JJ	.
*custos:F	*	*	*
!LO:LB:g=original	!	!	!
=11-	=11-	=11-	=11-
4F\	.	4f\	16a\LL
.	.	.	16b\
.	.	.	16cc\
.	.	.	16dd\
4E\	.	4e\	16ee\
.	.	.	16ff\
.	.	.	16gg\
.	.	.	16ee\JJ
*	*	*clefF4	*
4D/	.	16D\LL	4ff\
.	.	16E\	.
.	.	16F\	.
.	.	16G\JJ	.
*	*	*custos:A	*
!	!	!LO:LB:g=original	!
!	!	!	!LO:TX:t=P:problem:kreska pseudotaktowa
4AA/	.	16A\LL	4ee\
!	!	!LO:TX:t=P:problem:♭ above	!
.	.	16B-Xi\	.
.	.	16c\	.
!	!	!LO:TX:t=P:problem:kreska pseudotaktowa	!
.	.	16A\JJ	.
=12-	=12-	=12-	=12-
4BB-X/	.	4B-X\	16d/LL
.	.	.	16e/
.	.	.	16f/
.	.	.	16g/
4AA/	.	4A\	16a-X/
.	.	.	16b/
.	.	.	16cc/
.	.	.	16a-/JJ
4GG/	-	16GG/LL	4b-X/
.	.	16AA/	.
.	.	16BB-X/	.
.	.	16C/JJ	.
!LO:TX:t=P:problem:kreska pseudotaktowa	!	!	!LO:TX:t=P:problem:mixedb beam
4D/	.	16D\LL	8a-/L
.	.	16E\	.
!	!	!	!LO:TX:t=P:problem:kreska pseudotaktowa
.	.	16F\	8aa-y\J
!	!	!LO:TX:t=P:problem:kreska pseudotaktowa	!
.	.	16D\JJ	.
*	*	*	*custos:gg
!	!	!	!LO:LB:g=original
=13-	=13-	=13-	=13-
4E\	.	4.E\	4.gg\
4C/	.	.	.
.	.	8D/	8ff\
!	!	!LO:TX:t=P:problem:kreska pseudotaktowa	!
2D/	.	2D/	4ff\
.	.	.	8ee\L
!	!	!	!LO:TX:t=P:problem:kreska pseudotaktowa
.	.	.	8dd\J
=14-	=14-	=14-	=14-
!	!	!LO:TX:t=P:problem:mixed beam	!
2AA/	.	8AA/L	2ee\
.	.	8A\	.
.	.	8A\	.
.	.	8A\J	.
*	*	*	*clefG1
4D/	.	16D\LL	8r
.	.	16E\	.
.	.	16F\	8aany\L
.	.	16G\JJ	.
!LO:TX:t=P:problem:kreska pseudotaktowa	!	!	!
4A\	.	16A\LL	8aa\
!	!	!LO:TX:t=P:problem:♭ above	!
.	.	16B-Xi\	.
.	.	16c\	8aa\J
!	!	!LO:TX:t=P:problem:kreska pseudotaktowa	!
.	.	16A\JJ	.
=15-	=15-	=15-	=15-
4B-X\	.	4B-X\	16dd\LL
.	.	.	16ee\
.	.	.	16ff\
.	.	.	16gg\
!	!	!	!LO:TX:t=P:problem:♭ above
4A\	.	4A\	16aa-Xi\
.	.	.	16bb\
.	.	.	16ccc\
.	.	.	16aa-\JJ
4G\	-	16GG/LL	4bb-X\
.	.	16AA/	.
!	!	!LO:TX:t=P:problem:♭ above	!
.	.	16BB-Xi/	.
.	.	16C/JJ	.
!	!	!	!LO:TX:t=P:problem:kreska pseudotaktowa
4D/	.	16D\LL	4aa-\
!	!	!LO:TX:t=P:problem:♭ above	!
.	.	16E-Xi\	.
.	.	16F\	.
.	.	16D\JJ	.
=16-	=16-	=16-	=16-
*	*	*	*clefG2
4E-X\	.	4E-X\	16g/LL
.	.	.	16any/
.	.	.	16b-X/
.	.	.	16cc/JJ
4D/	.	4D/	16dd\LL
!	!	!	!LO:TX:t=P:problem:♭ above
.	.	.	16ee-Xi\
.	.	.	16ff\
.	.	.	16dd\JJ
*	*	*custos:C	*
!	!	!LO:LB:g=original	!
4C/	-	16C/LL	4ee-X\
.	.	16D/	.
!	!	!LO:TX:t=P:problem:♭ above	!
.	.	16E-i/	.
.	.	16F/JJ	.
!LO:TX:t=P:problem:kreska pseudotaktowa	!	!	!
4G\	.	16G\LL	4dd\
.	.	16A\	.
.	.	16B-X\	.
!	!	!LO:TX:t=P:problem:kreska pseudotaktowa	!
.	.	16G\JJ	.
=17-	=17-	=17-	=17-
4A\	.	4.A\	4.cc\
4F\	.	.	.
.	.	8G\	8b-X/
2G\	-	1G\	4b-/
.	.	.	8a/L
.	.	.	8g/J
*	*	*	*custos:a
!	!	!	!LO:LB:g=original
=18-	=18-	=18-	=18-
!LO:TX:t=P:problem:kreska pseudotaktowa	!	!	!
1D	.	.	2a/
.	.	2F#X\	2a/
=19-	=19-	=19-	=19-
2GG/	.	2G\	4g/
.	.	.	4dd\
*	*	*clefC3	*
1G\	-	1g\	4dd\
!	!	!	!LO:TX:t=P:problem:kreska pseudotaktowa
.	.	.	4dd\
=20-	=20-	=20-	=20-
.	.	.	8.b-X\LL
.	.	.	16cc\JJ
.	.	.	8.dd\LL
.	.	.	16eeny\JJ
!LO:TX:t=P:problem:kreska pseudotaktowa	!	!	!
2F\	.	2f\	8.ff\LL
.	.	.	16gg\JJ
.	.	.	8.aany\LL
!	!	!	!LO:TX:t=P:problem:kreska pseudotaktowa
.	.	.	16ff\JJ
=21-	=21-	=21-	=21-
2C/	.	4.e\	4.gg\
.	.	8d\	8ff\
2D/	.	2d\	4ff\
.	.	.	8ee\L
!	!	!	!LO:TX:t=P:problem:kreska pseudotaktowa
.	.	.	8dd\J
*custos:AA	*	*	*
!LO:LB:g=original	!	!	!
=22-	=22-	=22-	=22-
2AA/	.	2A/	2ee\
!LO:TX:t=P:problem:kreska pseudotaktowa	!	!	!
2BB-X/	.	2B-X/	2dd\
=23-	=23-	=23-	=23-
2AA/	.	1A	16cc#X\
.	.	.	4a/
.	.	.	32bny\LLL
.	.	.	32cc#Xi\
.	.	.	32dd\
.	.	.	32ee\
.	.	.	32ff\
.	.	.	32gg\JJJ
!	!	!	!LO:TX:t=P:problem:kreska pseudotaktowa między nutą a kropką
4.AA/	.	.	2.aa\
8GG/	.	.	.
=24-	=24-	=24-	=24-
4FF/	.	1r	.
4GG/	.	.	8gg\L
.	.	.	8ff\J
*	*	*	*custos:ee
!	!	!	!LO:LB:g=original
!LO:TX:t=P:problem:kreska pseudotaktowa między nutą a kropką	!	!	!
2.AA/	.	.	8ee\L
.	.	.	8dd\
.	.	.	8cc#X\
!	!	!	!LO:TX:t=P:problem:kreska pseudotaktowa
.	.	.	8b\J
*	*	*clefF4	*
=25-	=25-	=25-	=25-
.	.	8AA/L	8.cc#X\
.	.	16BBny/L	.
.	.	16C/JJ	16a/
4BB-X/	.	16D\LL	2dd\
.	.	16Eny\	.
.	.	16Fny\	.
.	.	16G\JJ	.
4.AA/	.	2.A\	.
!	!	!	!LO:TX:t=P:problem:kreska pseudotaktowa
.	.	.	4cc#X\
8GG/	.	.	.
=26-	=26-	=26-	=26-
4FF/	.	.	2dd\
4GG/	.	8G\L	.
.	.	8F\J	.
!LO:TX:t=P:problem:kreska pseudotaktowa między nutą a kropką	!	!	!
*	*	*custos:E	*
!	!	!LO:LB:g=original	!
2.AA/	.	8E\L	2r
.	.	8D\J	.
.	.	8C#X/L	.
!	!	!LO:TX:t=P:problem:kreska pseudotaktowa	!
.	.	8BB/J	.
=27-	=27-	=27-	=27-
.	.	8.C#X/L	8a/L
.	.	.	16b/L
.	.	16AA/Jk	16ccny/JJ
4BB-X/	.	2D/	16dd\LL
.	.	.	16ee\
.	.	.	16ff\
.	.	.	16gg\JJ
!	!	!	!LO:TX:t=P:problem:kreska pseudotaktowa
4.AA/	.	.	2.aa\
.	.	4C#X/	.
8GG/	.	.	.
=28-	=28-	=28-	=28-
4FF/	.	2D/	.
4GG/	.	.	8gg\L
.	.	.	8ff\J
!LO:TX:t=P:problem:kreska pseudotaktowa między nutą a kropką	!	!	!
2.AA/	.	2r	8ee\L
.	.	.	8dd\
.	.	.	8cc#X\
.	.	.	8b\J
=29-	=29-	=29-	=29-
.	.	1r	8.cc#X\L
.	.	.	16a\Jk
4BB-X/	.	.	2dd\
2AA/	.	.	.
!	!	!	!LO:TX:t=P:problem:kreska pseudotaktowa
.	.	.	4cc#X\
=30-	=30-	=30-	=30-
2.D/	.	8D/L	2dd\
.	.	16E/L	.
.	.	16F/JJ	.
.	.	16G/LL	.
.	.	16A/	.
.	.	16Bny/	.
.	.	16c/JJ	.
.	.	2.d\	2r
4C/	.	.	.
*	*	*custos:d	*
!	!	!LO:LB:g=original	!
=31-	=31-	=31-	=31-
4BBny/	.	.	1r
4C/	.	8c\L	.
.	.	8B\J	.
2.D/	.	8A\L	.
.	.	8G\	.
.	.	8F#Xi\	.
.	.	8E\J	.
*	*	*	*custos:d
!	!	!	!LO:LB:g=original
=32-	=32-	=32-	=32-
.	.	8.F#X\L	8d/L
.	.	.	16e/
.	.	16D\Jk	16f/
4Eny\	.	2G\	16g/
.	.	.	16a/
.	.	.	16b/
.	.	.	16ccny/JJ
*custos:D	*	*	*
!LO:LB:g=original	!	!	!
4.D/	.	.	2.dd\
.	.	4F#X\	.
8C/	.	.	.
=33-	=33-	=33-	=33-
4BB/	.	2G\	.
4C/	.	.	8cc\L
.	.	.	8b\J
!LO:TX:t=P:problem:kreska pseudotaktowa między nutą a kropką	!	!	!
2.D/	.	2r	8a/L
.	.	.	8g/
.	.	.	8f#X/
!	!	!	!LO:TX:t=P:problem:kreska pseudotaktowa
.	.	.	8e/J
=34-	=34-	=34-	=34-
.	.	1r	8.f#X/L
.	.	.	16d/Jk
4E\	.	.	2g/
2D/	.	.	.
!	!	!	!LO:TX:t=P:problem:kreska pseudotaktowa
.	.	.	4f#X/
*	*	*clefC3	*
=35-	=35-	=35-	=35-
2G\	.	8G/L	2g/
.	.	16A/L	.
.	.	16B/JJ	.
.	.	16c\LL	.
*	*	*custos:c	*
!	!	!LO:LB:g=original	!
.	.	16d\	.
.	.	16e\	.
.	.	16f\JJ	.
4.G\	.	2.g\	2r
!LO:TX:t=P:problem:kreska pseudotaktowa	!	!	!
8F\	.	.	.
=36-	=36-	=36-	=36-
4E\	.	.	1r
4F\	.	8f\L	.
.	.	8e\J	.
2.G\	.	8d/L	.
.	.	8c/J	.
.	.	8B/L	.
.	.	8A/J	.
=37-	=37-	=37-	=37-
.	.	8.B/L	8g/L
.	.	.	16a/L
.	.	16G/Jk	16b/JJ
4A\	.	2c/	16cc\LL
.	.	.	16dd\
.	.	.	16ee\
.	.	.	16ff#Xi\JJ
4.G\	.	.	2.gg\
.	.	4B/	.
!LO:TX:t=P:problem:kreska pseudotaktowa	!	!	!
8F\	.	.	.
=38-	=38-	=38-	=38-
4E\	.	2c/	.
4F\	.	.	8ffny\L
.	.	.	8ee\J
2.G\	.	2r	8dd\L
.	.	.	8cc\
.	.	.	8b\
!	!	!	!LO:TX:t=P:problem:kreska pseudotaktowa
.	.	.	8a\J
*	*	*clefC4	*custos:b
!	!	!	!LO:LB:g=original
=39-	=39-	=39-	=39-
.	.	1r	8.b/L
.	.	.	16g/Jk
4A\	.	.	2cc\
!LO:TX:t=P:problem:kreska pseudotaktowa	!	!	!
2G\	.	.	.
.	.	.	4b/
=40-	=40-	=40-	=40-
2C/	.	2r	2cc\
1C/	.	1e\	1cc\
=41-	=41-	=41-	=41-
!LO:TX:t=P:problem:kreska pseudotaktowa	!	!	!
2D/	.	4d\	4b/
.	.	4c\	4a/
=42-	=42-	=42-	=42-
2E\	.	4B\	4g#X/
.	.	4G#X/	4e/
1C/	.	1c\	1ee\
=43-	=43-	=43-	=43-
*custos:D	*	*	*
!LO:LB:g=original	!	!	!
2D/	.	8B/L	8dd\L
.	.	8A/	8cc\
!	!	!LO:TX:t=P:problem:# below	!
.	.	8G#X/	8b\
!	!	!	!LO:TX:t=P:problem:kreska pseudotaktowa
.	.	8F#X/J	8a\J
=44-	=44-	=44-	=44-
1E	.	4G#X/	4b/
.	.	2A/	4cc\
.	.	.	2b/
.	.	4G#X/	.
=45-	=45-	=45-	=45-
*M3/2	*	*M3/2	*M3/2
*met(3)	*	*	*
!LO:N:vis=4:xstem	!	!LO:N:vis=4:xstem	!
2AA/	.	2A/	2a/
4AA/	.	4A/	8a/L
.	.	.	8b/J
*	*	*custos:A	*
!	!	!LO:LB:g=original	!
!LO:N:vis=4:xstem	!	!LO:N:vis=4:xstem	!
2AA/	.	2A/	4.cc\
.	.	.	8b/
!LO:TX:t=P:problem:kreska pseudotaktowa	!	!	!LO:TX:t=P:problem:kreska pseudotaktowa
4AA/	.	4A\	4a/
=46-	=46-	=46-	=46-
!LO:N:vis=4:xstem	!	!LO:N:vis=4:xstem	!LO:N:vis=4:xstem
2E\	.	2e\	2g#X/
4AA/	.	8A\L	8cc\L
.	.	8B\J	8dd\J
*	*	*	*custos:ee
!LO:N:vis=4:xstem	!	!	!LO:LB:g=original
2AA/	.	4.c\	4.ee\
.	.	8B\	8dd\
!LO:TX:t=P:problem:kreska pseudotaktowa	!	!	!LO:TX:t=P:problem:kreska pseudotaktowa
4AA/	.	4A/	4cc\
=47-	=47-	=47-	=47-
!LO:N:vis=4:xstem	!	!LO:N:vis=4:xstem	!LO:N:vis=4:xstem
2E\	.	2G#X/	2b\
4C/	.	8c\L	8ee\L
.	.	8d\J	8ff\J
!LO:N:vis=4:xstem	!	!	!
2C/	.	4.e\	4.gg\
.	.	8d\	8ff\
!LO:TX:t=P:problem:kreska pseudotaktowa	!	!	!LO:TX:t=P:problem:kreska pseudotaktowa
4C/	.	4c\	4ee\
=48-	=48-	=48-	=48-
!LO:N:vis=4:xstem	!	!LO:N:vis=4:xstem	!LO:N:vis=4:xstem
2G\	.	2B\	2dd\
4E\	.	8e\L	8gg\L
.	.	8f\J	8aa\J
2E\	.	4.g\	4.bbny\
.	.	8f\	8aa\
!LO:TX:t=P:problem:kreska pseudotaktowa	!	!	!LO:TX:t=P:problem:kreska pseudotaktowa
4E\	.	4e\	4gg\
=49-	=49-	=49-	=49-
!LO:N:vis=4:xstem	!	!LO:N:vis=4:xstem	!LO:N:vis=4:xstem
2Bny\	.	2d#X\	2ff#X\
4E\	.	8e\L	8ee\L
.	.	16A\L	16cc\L
.	.	16B\JJ	16dd\JJ
!LO:N:vis=4:xstem	!	!	!
2A\	.	4.c\	4.ee\
.	.	8B\	8dd\
!	!	!	!LO:TX:t=P:problem:kreska pseudotaktowa
4A\	.	4A/	4cc\
=50-	=50-	=50-	=50-
!LO:N:vis=4:xstem	!	!LO:N:vis=4:xstem	!LO:N:vis=4:xstem
2E\	.	2G#X/	2b\
4AA/	.	8A/L	8a/
.	.	16G#/L	16cc\LL
.	.	16A/JJ	16dd\JJ
*custos:C	*	*custos:c	*custos:ee
!LO:LB:g=original	!	!LO:LB:g=original	!LO:LB:g=original
=51-	=51-	=51-	=51-
*M2/2	*	*M2/2	*M2/2
*met(C|)	*	*met(C|)	*met(C|)
2C/	.	2c\	2ee\
2D/	.	2.B\	2.dd\
=52-	=52-	=52-	=52-
0E	.	.	.
.	.	4A/	4cc\
.	.	1A\	4cc\
.	.	.	8b/L
!	!	!	!LO:TX:t=P:problem:kreska pseudotaktowa
.	.	.	8a/J
=53-	=53-	=53-	=53-
!LO:TX:t=P:problem:kreska pseudotaktowa	!	!	!
.	.	.	2b/
.	.	2G#X/	2b/
=54-	=54-	=54-	=54-
!	!	!	!LO:TX:t=P:problem:mixed beam
1AA	.	2A/	8a/L
.	.	.	8ee\
.	.	.	8ee\
.	.	.	8ee\J
.	.	8r	16ee\LL
.	.	.	16cc\
.	.	8A/L	16ee\
.	.	.	16dd\JJ
.	.	8A/	16cc\LL
.	.	.	16a\
!	!	!LO:TX:t=P:problem:kreska pseudotaktowa	!
.	.	8A/J	16cc\
!	!	!	!LO:TX:t=P:problem:kreska pseudotaktowa
.	.	.	16b\JJ
=55-	=55-	=55-	=55-
!LO:TX:t=P:problem:kreska pseudotaktowa	!	!	!LO:TX:t=P:problem:mixed beam
1D	.	16A/LL	8a/L
.	.	16Fny/	.
.	.	16A/	8aa\
.	.	16Gny/JJ	.
.	.	16F/LL	8aa\
.	.	16D/	.
.	.	16F/	8aa\J
.	.	16E/JJ	.
!	!	!LO:TX:t=P:problem:mixed beam	!
.	.	16D/LL	16aa\LL
.	.	16dny\	16ffny\
.	.	16d\	16aa\
!	!	!LO:TX:t=P:problem:kreska pseudotaktowa	!
.	.	16d\JJ	16gg\JJ
.	.	16d\LL	16ff\LL
.	.	16B\	16dd\
.	.	16d\	16ff\
!	!	!	!LO:TX:t=P:problem:kreska pseudotaktowa
.	.	16c\JJ	16ee\JJ
*	*	*	*custos:dd
!	!	!	!LO:LB:g=original
=56-	=56-	=56-	=56-
1GG	.	16B\LL	8dd\L
.	.	16G\	.
.	.	16B\	8dd\
.	.	16A\JJ	.
!	!	!LO:TX:t=P:problem:mixed beam	!
.	.	16G/LL	8dd\
.	.	16g\	.
.	.	16g\	8dd\J
!	!	!LO:TX:t=P:problem:kreska pseudotaktowa	!
.	.	16g\JJ	.
.	.	16g\LL	16dd\LL
.	.	16e\	16b\
.	.	16g\	16dd\
.	.	16f\JJ	16cc\JJ
.	.	16e\LL	16b/LL
.	.	16c\	16gny/
.	.	16e\	16b/
!	!	!	!LO:TX:t=P:problem:kreska pseudotaktowa
.	.	16d\JJ	16a/JJ
*	*	*custos:c	*
!	!	!LO:LB:g=original	!
=57-	=57-	=57-	=57-
!	!	!	!LO:TX:t=P:problem:mixed beam
2C/	.	2c\	8g/L
.	.	.	8gg\
.	.	.	8gg\
.	.	.	8gg\J
!LO:TX:t=P:problem:kreska pseudotaktowa	!	!LO:TX:t=P:problem:w źródle brak pauzy 	!
2C/	.	2ryy	16gg\LL
.	.	.	16ee\
.	.	.	16gg\
.	.	.	16ff\JJ
.	.	.	16ee\LL
.	.	.	16cc\
.	.	.	16ee\
!	!	!	!LO:TX:t=P:problem:kreska pseudotaktowa
.	.	.	16dd\JJ
=58-	=58-	=58-	=58-
2C/	.	4r	4cc\
.	.	4c\	4ee\
4C/	.	4c\	4ee\
4C/	.	4c\	4ee\
=59-	=59-	=59-	=59-
2.AA/	.	8c\L	8ee\L
.	.	8A\	8cc\
.	.	8c\	8ee\
.	.	8B\J	8dd\J
.	.	4A/	8cc\L
.	.	.	8a\
!LO:TX:t=P:problem:kreska pseudotaktowa	!	!LO:TX:t=P:problem:kreska pseudotaktowa	!
4E\	.	4G#X/	8cc\
!	!	!	!LO:TX:t=P:problem:kreska pseudotaktowa
.	.	.	8b\J
*	*	*	*custos:a
!	!	!	!LO:LB:g=original
=60-	=60-	=60-	=60-
4AA/	.	4A/	4a/
4D/	.	4f\	4aa\
4D/	.	4f\	4aa\
!	!	!LO:TX:t=P:problem:kreska pseudotaktowa	!
4D/	.	4f\	4aa\
=61-	=61-	=61-	=61-
2.D/	.	8f\L	8aa\L
.	.	8d\	8ff\
.	.	8f\	8aa\
.	.	8e\J	8gg\J
.	.	4d\	8ff\L
.	.	.	8dd\
!LO:TX:t=P:problem:kreska pseudotaktowa	!	!	!
4AA/	.	4c#X\	8ff\
!	!	!	!LO:TX:t=P:problem:kreska pseudotaktowa
.	.	.	8ee\J
*custos:D	*	*	*
!LO:LB:g=original	!	!	!
=62-	=62-	=62-	=62-
!	!	!LO:TX:t=P:problem:mixed beam	!LO:TX:t=P:problem:mixed beam
2D/	.	8d\L	8dd\L
.	.	8D/	8fny/
.	.	8E/	8g/
.	.	8F#Xi/J	8a/J
2GG/	.	8Gny\L	8b\L
.	.	8A\	8cc\
.	.	8B\	8dd\
!	!	!	!LO:TX:t=P:problem:kreska pseudotaktowa
.	.	8cny\J	8ee\J
=63-	=63-	=63-	=63-
!LO:TX:t=P:problem:kreska pseudotaktowa	!	!	!
1D	.	8d\L	8ff\L
.	.	8c\	8ee\
.	.	8B\	8dd\
.	.	8c\J	8ee\J
.	.	8d\L	8ff\L
.	.	8e\J	8gg\J
.	.	2f\	2aa\
=64-	=64-	=64-	=64-
0AA	.	.	.
*	*	*custos:e	*
!	!	!LO:LB:g=original	!
.	.	8e\L	8gg\L
.	.	8d\J	8ff\J
.	.	4c#X\	4ee\
.	.	2d\	2ff\
=65-	=65-	=65-	=65-
.	.	8c#\L	8ee\L
.	.	8B\J	8dd\J
*	*	*	*custos:cc#
!	!	!	!LO:LB:g=original
.	.	4A/	4cc#X\
.	.	2f\	2aa\
=66-	=66-	=66-	=66-
0AA	.	.	.
.	.	8e\L	8gg\L
.	.	8d\J	8ff\J
.	.	4c#X\	4ee\
.	.	2A/	2ccny\
=67-	=67-	=67-	=67-
!LO:TX:t=P:problem:kreska pseudotaktowa	!	!	!
.	.	8G/L	8b/L
.	.	8Fny/J	8a/J
.	.	4E/	4g#X/
.	.	2F/	2a/
=68-	=68-	=68-	=68-
0AA	.	.	.
.	.	8E/L	8gny/L
.	.	8D/J	8f/J
.	.	4C#X/	4e/
.	.	2f\	2aa\
=69-	=69-	=69-	=69-
.	.	8e\L	8gg\L
.	.	8d\J	8ff\J
.	.	4c#X\	4ee\
.	.	2d\	2ff\
=70-	=70-	=70-	=70-
0AA	.	.	.
.	.	8c#\L	8ee\L
.	.	8B\J	8dd\J
.	.	4A/	4cc#X\
.	.	2.f\	2.dd\
=71-	=71-	=71-	=71-
.	.	4e\	4cc#X\
.	.	4d\	4b/
=72-	=72-	=72-	=72-
!	!	!	!LO:TX:i:b:t=finis
0AAl;;	.	0Al;;	0cc#Xl;;
==	==	==	==
*-	*-	*-	*-
!!!system-decoration: s1,s2,s3
!!!RDF**kern: i = editorial accidental
!!!RDF**kern: l = terminal long
!!!ENC: Anastazja Marusiak
!!!END: 2022-10-31
!!!ENC: Natalia Wrzos
!!!END: 2022-11-09
!!!YEC: Copyright 2022 Narodowy Instytut Fryderyka Chopina (https://polishscores.org)
!!!YEM: License CC-BY-4.0 (https://creativecommons.org/licenses/by/4.0)
